!!!COM: Scriabin, Alexander
!!!OTL@@FR: Mazurka
!!!OTL@@EN:
!!!OPR@@FR: 9 Mazurkas
!!!OPS: 25
!!!ONM: 8
!!!ODT: 1899
!!!AGN: Mazurka
**kern	**kern	**dynam
*staff2	*staff1	*staff1/2
*Ipiano	*Ipiano	*
*clefF4	*clefG2	*
*k[f#c#g#d#a#]	*k[f#c#g#d#a#]	*
*B:	*B:	*
*M3/4	*M3/4	*
=1	=1	=1
*^	*^	*
2.B	8.EL	8.g#L	4rc	.
.	16D#Jk	16f#Jk	.	.
.	2C#	4g#	2e	.
.	.	[4dd#	.	.
=2	=2	=2	=2	=2
2.B	8.EL	8.dd#L]	8.g#L	.
.	16D#Jk	16bJk	16f#Jk	.
.	4.C#	4dd#	[2e	.
.	.	8cc#L	.	.
.	8C#	8dd#J	.	.
=3	=3	=3	=3	=3
8BL	4F#	8g#L	4e]	.
8c#J	.	8a#J	.	.
2d#	4.B	4f#	2d#	.
.	.	8g#L	.	.
.	8A#	8a#J	.	.
=4	=4	=4	=4	=4
2d#	4G#	8bL	4g#	.
.	.	8g#J	.	.
.	4D#	4a#	4f##X	.
4d#	4rEE	4raa	4rc	.
*	*	*v	*v	*
=5	=5	=5	=5
*	*^	*	*
4rc	8d#L	2.E\ 2.B	4r	.
.	[8c#J	.	.	.
4.f##X	2c#]	.	8cc#L	.
.	.	.	8bb	.
.	.	.	8aa#	.
8g#	.	.	8gg#J	.
*v	*v	*v	*	*
=6	=6	=6
8g#	8ff#XL	.
8r	16r	.
.	16g#Jk	.
4r	4.ee	.
4r	.	.
.	8dd#	.
=7	=7	=7
*^	*^	*
*	*	*	*^	*
8BL	2.F#	4.dd#	2f#	2.e\	.
8G#	.	.	.	.	.
8B	.	.	.	.	.
8A#	.	8cc#	.	.	.
8d#	.	8ff#L	8a#L	.	.
8c#J	.	8a#J	8f#J	.	.
*	*	*	*v	*v	*
=8	=8	=8	=8	=8
2B	2BB	8.dd#L	2d# 2f#	.
.	.	16cc#Jk	.	.
.	.	4b	.	.
4rc	4rEE	4f#	4B 4d#	.
*v	*v	*	*	*
=9	=9	=9	=9
8.EL	8.g#L	8.BL 8.c#	.
16D#Jk	16g#Jk	16BJk 16d#	.
4.C#	4g#	[4B [4e [4g#	.
.	4dd#	4B] 4e] 4g#]	.
8C#	.	.	.
=10	=10	=10	=10
8F#L	8BL 8dd#	[4e [4f#	.
8FF#J	8A#J 8cc#	.	.
4BB	4B 4b	8eL] 8f#]	.
.	.	8d#J	.
4r	4f#	4B 4dn	.
=11	=11	=11	=11
8.DnL	8.fnL	8.AnL 8.B	.
16C#Jk	16fJk	16AJk 16c#	.
4.BB	4f	[4A [4dn [4f	.
.	4cc#	4A] 4d] 4f]	.
8BB	.	.	.
=12	=12	=12	=12
*	*	*^	*
8EL	8.AnL 8.cc#	4dn 4e	4r	.
8EEJ	.	.	.	.
.	16G#Jk 16b	.	.	.
4AAn	4A 4e 4an	8dL	4r	.
.	.	8c#J	.	.
8AAL	[4e	[4cn	8A\L	.
8BBJ	.	.	8G#\J	.
=13	=13	=13	=13	=13
2.Cn	8.eL]	2cn]	2Gn\	.
.	16dnJk	.	.	.
.	4e	.	.	.
.	[4gn	4e	[4c\	.
=14	=14	=14	=14	=14
2.GGn	8.gL]	2dn	4c/]	.
.	16f#Jk	.	.	.
.	4gn	.	4B/	.
.	4b	4f#	4d/	.
*	*	*v	*v	*
=15	=15	=15	=15
*^	*	*	*
2B	2.C#X	4ddn	4f#	.
.	.	8dd#XL	2e#X	.
.	.	8cc#	.	.
4d#	.	8b	.	.
.	.	8g#J	.	.
=16	=16	=16	=16	=16
4d#	2.F#	4b	2f#	.
4c#	.	4a#	.	.
4rc	.	4f#	4rc	.
=17	=17	=17	=17	=17
4rc	8.EL	8.g#L	4rc	.
.	16D#Jk	16f#Jk	.	.
2B	2C#	4g#	2e	.
.	.	[4dd#	.	.
=18	=18	=18	=18	=18
2.B	8.EL	8.dd#L]	8.g#L	.
.	16D#Jk	16bJk	16f#Jk	.
.	4.C#	4dd#	[2e	.
.	.	8cc#L	.	.
.	8C#	8dd#J	.	.
=19	=19	=19	=19	=19
8BL	4F#	8g#L	4e]	.
8c#J	.	8a#J	.	.
2d#	4.B	4f#	2d#	.
.	.	8g#L	.	.
.	8A#	8a#J	.	.
=20	=20	=20	=20	=20
2d#	4G#	8bL	4g#	.
.	.	8g#J	.	.
.	4D#	4a#	4f##X	.
4d#	4rEE	4raa	4rc	.
*	*	*v	*v	*
=21	=21	=21	=21
*	*^	*	*
4rc	8d#L	2.E\ 2.B	4r	.
.	[8c#J	.	.	.
4.f##X	2c#]	.	8cc#L	.
.	.	.	8bb	.
.	.	.	8aa#	.
8g#	.	.	8gg#J	.
*v	*v	*v	*	*
=22	=22	=22
8g#	8ff#XL	.
8r	16r	.
.	16g#Jk	.
4r	4.ee	.
4r	.	.
.	8dd#	.
=23	=23	=23
*^	*^	*
*	*	*	*^	*
8BL	2.F#	4.dd#	2f#	2.e\	.
8G#	.	.	.	.	.
8B	.	.	.	.	.
8A#	.	8cc#	.	.	.
8d#	.	8ff#L	8a#L	.	.
8c#J	.	8a#J	8f#J	.	.
*	*	*	*v	*v	*
=24	=24	=24	=24	=24
2B	2BB	8.dd#L	2d# 2f#	.
.	.	16cc#Jk	.	.
.	.	4b	.	.
4rc	4FFF# 4FF#	4raa	4rc	.
*v	*v	*	*	*
*	*v	*v	*
=25||	=25||	=25||
*k[f#c#]	*k[f#c#]	*
*	*^	*
8.DDL 8.D	4F# 4B 4f#	[2.B	.
16DDJk 16D	.	.	.
4..DD 4..D	2G 2f# 2g	.	.
16FF# 16F#	.	.	.
=26	=26	=26	=26
8.DDL 8.D	4G#X 4f# 4g#X	2.B]	.
16DDJk 16D	.	.	.
4..DD 4..D	2A 2f# 2a	.	.
16CC# 16C#	.	.	.
=27	=27	=27	=27
2.GGn 2.Gn	2A#X 2a#X	2.e#X	.
.	4B 4b	.	.
=28	=28	=28	=28
2FF# 2F#	4d 4dd	2a#X	.
.	4c# 4cc#	.	.
8r	4raa	4f#	.
8FFF# 8FF#	.	.	.
=29	=29	=29	=29
8.DDL 8.D	4F# 4B 4f#	[2.B	.
16DDJk 16D	.	.	.
4..DD 4..D	2G 2f# 2g	.	.
16FF# 16F#	.	.	.
=30	=30	=30	=30
8.DDL 8.D	4G#X 4f# 4g#X	2.B]	.
16DDJk 16D	.	.	.
4..DD 4..D	2A 2f# 2a	.	.
16CC# 16C#	.	.	.
=31	=31	=31	=31
2.GGn 2.Gn	2A#X 2a#X	2.e#X	.
.	4B 4b	.	.
=32	=32	=32	=32
2FF# 2F#	4d 4dd	2a#X	.
.	4c# 4cc#	.	.
8r	4raa	4f#	.
8CC# 8C#	.	.	.
*	*v	*v	*
=33	=33	=33
[2AAn [2An	4c# 4f# 4cc#	.
.	4d#X 4f# 4cc# 4dd#X	.
8.AAL] 8.A]	4e 4f# 4cc# 4ee	.
16GG#XJk 16G#X	.	.
=34	=34	=34
2.Dn 2.dn	4e#X 4g#X 4b#X 4ee#X	.
.	4f# 4g# 4b# 4ff#	.
.	4g# 4b# 4gg#X	.
=35	=35	=35
4C# 4c#	4f# 4g#X 4cc# 4ff#	.
4GG#X 4G#X	4e#X 4g# 4cc# 4ee#X	.
4AA#X 4A#X	4f# 4gn 4cc# 4ff#	.
=36	=36	=36
4BB 4B	4en 4f# 4b 4een	.
4FF# 4F#	4d#X 4f# 4b 4dd#X	.
4GG#X 4G#X	4dn 4e#X 4b 4ddn	.
=37	=37	=37
*	*^	*
*	*	*^	*
2.AA 2.A	4d 4dd	4a	2.f#\	.
.	4c# 4cc#	4rc	.	.
.	4d 4dd	4rc	.	.
*	*	*v	*v	*
=38	=38	=38	=38
2.GGn 2.Gn	4c# 4cc#	2.e#X	.
.	4B 4b	.	.
.	4c# 4cc#	.	.
=39	=39	=39	=39
2.FF# 2.F#	4B 4b	2.c# 2.f#	.
.	4A#X 4a#X	.	.
.	4F# 4f#	.	.
=40	=40	=40	=40
2EE 2E	4G 4g	2A#X 2c#	.
.	4F# 4f#	.	.
4FFF# 4FF#	4raa	4rc	.
=41	=41	=41	=41
8.DDL 8.D	4F# 4B 4f#	[2.B	.
16DDJk 16D	.	.	.
4..DD 4..D	2G 2f# 2g	.	.
16FF# 16F#	.	.	.
=42	=42	=42	=42
8.DDL 8.D	4G#X 4f# 4g#X	2.B]	.
16DDJk 16D	.	.	.
4..DD 4..D	2A 2f# 2a	.	.
16CC# 16C#	.	.	.
=43	=43	=43	=43
2.GGn 2.Gn	2A#X 2a#X	2.e#X	.
.	4B 4b	.	.
=44	=44	=44	=44
2FF# 2F#	4d 4dd	2a#X	.
.	4c# 4cc#	.	.
8r	4raa	4f#	.
8FFF# 8FF#	.	.	.
=45	=45	=45	=45
2.GG 2.G	2A#X 2a#X	2.e#X	.
.	4B 4b	.	.
=46	=46	=46	=46
2FF# 2F#	4d 4dd	2a#X	.
.	4c# 4cc#	.	.
4r	4raa	4f#	.
*	*v	*v	*
=47||	=47||	=47||
*k[f#c#g#d#a#]	*k[f#c#g#d#a#]	*
*^	*^	*
2.B	8.EL	8.g#L	4rc	.
.	16D#Jk	16f#Jk	.	.
.	2C#	4g#	2e	.
.	.	[4dd#	.	.
=48	=48	=48	=48	=48
2.B	8.EL	8.dd#L]	8.g#L	.
.	16D#Jk	16bJk	16f#Jk	.
.	4.C#	4dd#	[2e	.
.	.	8cc#L	.	.
.	8C#	8dd#J	.	.
=49	=49	=49	=49	=49
8BL	4F#	8g#L	4e]	.
8c#J	.	8a#J	.	.
2d#	4.B	4f#	2d#	.
.	.	8g#L	.	.
.	8A#	8a#J	.	.
=50	=50	=50	=50	=50
2d#	4G#	8bL	4g#	.
.	.	8g#J	.	.
.	4D#	4a#	4f##X	.
4d#	4rEE	4raa	4rc	.
*	*	*v	*v	*
=51	=51	=51	=51
*	*^	*	*
4rc	8d#L	2.E\ 2.B	4r	.
.	[8c#J	.	.	.
4.f##X	2c#]	.	8cc#L	.
.	.	.	8bb	.
.	.	.	8aa#	.
8g#	.	.	8gg#J	.
*v	*v	*v	*	*
=52	=52	=52
8g#	8ff#XL	.
8r	16r	.
.	16g#Jk	.
4r	4.ee	.
4r	.	.
.	8dd#	.
=53	=53	=53
*^	*^	*
*	*	*	*^	*
8BL	2.F#	4.dd#	2f#	2.e\	.
8G#	.	.	.	.	.
8B	.	.	.	.	.
8A#	.	8cc#	.	.	.
8d#	.	8ff#L	8a#L	.	.
8c#J	.	8a#J	8f#J	.	.
*	*	*	*v	*v	*
=54	=54	=54	=54	=54
2B	2.BB	8.dd#L	2d# 2f#	.
.	.	16cc#Jk	.	.
.	.	4b	.	.
4rc	.	4f#	4B 4d#	.
*v	*v	*	*	*
=55	=55	=55	=55
8.EL	8.g#L	8.BL 8.c#	.
16D#Jk	16g#Jk	16BJk 16d#	.
4.C#	4g#	[4B [4e [4g#	.
.	4dd#	4B] 4e] 4g#]	.
8C#	.	.	.
=56	=56	=56	=56
8F#L	8BL 8dd#	[4e [4f#	.
8FF#J	8A#J 8cc#	.	.
4BB	4B 4b	8eL] 8f#]	.
.	.	8d#J	.
4r	4f#	4B 4dn	.
=57	=57	=57	=57
8.DnL	8.fnL	8.AnL 8.B	.
16C#Jk	16fJk	16AJk 16c#	.
4.BB	4f	[4A [4dn [4f	.
.	4cc#	4A] 4d] 4f]	.
8BB	.	.	.
=58	=58	=58	=58
*	*	*^	*
8EL	8.AnL 8.cc#	4dn 4e	4r	.
8EEJ	.	.	.	.
.	16G#Jk 16b	.	.	.
4AAn	4A 4e 4an	8dL	4r	.
.	.	8c#J	.	.
8AAL	[4e	[4cn	8A\L	.
8BBJ	.	.	8G#\J	.
=59	=59	=59	=59	=59
2.Cn	8.eL]	2c]	2Gn\	.
.	16dnJk	.	.	.
.	4e	.	.	.
.	[4gn	4e	[4cn\	.
=60	=60	=60	=60	=60
2.GGn	8.gL]	2dn	4c/]	.
.	16f#Jk	.	.	.
.	4gn	.	4B/	.
.	4b	4f#	4d/	.
*	*	*v	*v	*
=61	=61	=61	=61
*^	*	*	*
2B	2.C#X	4ddn	4f#	.
.	.	8dd#XL	2e#X	.
.	.	8cc#	.	.
4d#	.	8b	.	.
.	.	8g#J	.	.
=62	=62	=62	=62	=62
4d#	2.F#	4b	2f#	.
4c#	.	4a#	.	.
4rc	.	4f#	4rc	.
=63	=63	=63	=63	=63
2.B	8.EL	8.g#L	4rc	.
.	16D#Jk	16f#Jk	.	.
.	2C#	4g#	2e	.
.	.	[4dd#	.	.
=64	=64	=64	=64	=64
2.B	8.EL	8.dd#L]	8.g#L	.
.	16D#Jk	16bJk	16f#Jk	.
.	4.C#	4dd#	[2e	.
.	.	8cc#L	.	.
.	8C#	8dd#J	.	.
=65	=65	=65	=65	=65
8BL	4F#	8g#L	4e]	.
8c#J	.	8a#J	.	.
2d#	4.B	4f#	2d#	.
.	.	8g#L	.	.
.	8A#	8a#J	.	.
=66	=66	=66	=66	=66
2d#	4G#	8bL	4g#	.
.	.	8g#J	.	.
.	4D#	4a#	4f##X	.
4d#	4rEE	4raa	4rc	.
*	*	*v	*v	*
=67	=67	=67	=67
*	*^	*	*
4rc	8d#L	2.E\ 2.B	4r	.
.	[8c#J	.	.	.
4.f##X	2c#]	.	8cc#L	.
.	.	.	8bb	.
.	.	.	8aa#	.
8g#	.	.	8gg#J	.
*v	*v	*v	*	*
=68	=68	=68
8g#	8ff#XL	.
8r	16r	.
.	16g#Jk	.
4r	4.ee	.
4r	.	.
.	8dd#	.
=69	=69	=69
*^	*^	*
*	*	*	*^	*
8BL	2.F#	4.dd#	2f#	2.e\	.
8G#	.	.	.	.	.
8B	.	.	.	.	.
8A#	.	8cc#	.	.	.
8d#	.	8ff#L	8a#L	.	.
8c#J	.	8a#J	8f#J	.	.
*	*	*	*v	*v	*
=70	=70	=70	=70	=70
2.B	2.BB	8.dd#L	2.d# 2.f#	.
.	.	16cc#Jk	.	.
.	.	2b	.	.
*v	*v	*	*	*
*	*v	*v	*
==	==	==
*-	*-	*-
!!!system-decoration: {(*)}
!!!ENC: Bryan Jacob Bell
!!!END: November 2021 to April 2022
!!!PED: Günter Philipp
!!!PTL: Ausgewählte Klavierwerke (Edition Peters)
